X:6
%%MIDI gchord c
T:La revanche du triton
C:Bruno Scherrer
L:1/16
M:3/4
K:Dbmaj
V:1
V:2
V:3 clef=bass
V:1
"Ebm9"cdcB cd z e z f z _f- | "BbbΔ"_fed_c d8 | "CbΔ"z4 _cd z _c z BA2- | "DbΔ"A12 |
"Ebm9"=cdcB cd z e z f z _f- | "BbbΔ"_fed_c d8 | "CbΔ"z4 B_c z d z ed2- | "GbΔ"d12 |
"Bbm"fgfe f8 | "BbmΔ/Bbb"fgfe f8 | "Bbm7/Ab"fgfe fg z f z e e2- | "Bbm6/Gb"e12 |
"GbΔ"ded=c d8 | "BbbΔ"_cd_c__B _c8 | "CbΔ"_cd_c_B _c6 d=c- | "DbΔ"=c12 |
V:2
[fa]3[eg] z [fa] [eg]6 | [_fa]3[eg] z [_fa] [eg]6 | [ea]3[dg] z [ea] [dg]4 [cdf]2- | [cdf]12 |
[fa]3[eg] z [fa] [eg]6 | [_fa]3[eg] z [_fa] [eg]6 | [ea]3[dg] z [ea] [dg]4 [Bdf]2- | [Bdf]12 |
[fd]3[db] z [fd] [db]6 | [fd]3[c__b] z [fd] [c__b]6 | [fd]3[_ca] z [fd] [_ca]4 [Bd=g]2- | [Bdg]12 |
[fa]3[eg] z [fa] [eg]6 | [_fa]3[eg] z [_fa] [eg]6 | [ea]3[dg] z [ea] [dg]4 [cdf]2- | [cdf]12 |
V:3
E,3B, F3 E,2 B,2 F | __B,,3_F, _C3 __B,,2 _F,2 _C | _C,3G, B,3 _C,2 G,2 B, | D,3A, C8 | 
E,3B, F3 E,2 B,2 F | __B,,3_F, _C3 __B,,2 _F,2 _C | _C,3G, B,3 _C,2 G,2 B, | G,3B, D8 |
B,3D F3 B,2 D2 F | __B,3D F3 __B,2 D2 F | A,3D F3 A,2 D2 F | =G,3D F8 |
G,3B, F3 G2 B,2 F | __B,,3_F, _C3 __B,,2 _F,2 _C | _C,3G, B,3 _C,2 G,2 B, | D,3A, C8 ||
%%begintext
Intro: grille sans thème
Thème 1 principal, puis thème 2 avec le contre-chant (sans le thème principal)
Solos sur 2 grilles (dans la deuxième, on peut jouer le contre-chant)
Reprise du thème avec chant et contre-chant
%%endtext

